X: 6
T: The Hare's Paw
R: reel
M: 4/4
L: 1/8
K: Edor
~G2 GA Be~e2|.D2 AD BEED|~G2 GA .B2Bd|egfg edBA|
~G2 GA BE~E2|BBAD BEED|~G2 GA .B2Bd|egfg ~e2ef||
.g2 bg gfed|Bdgd Bd.d2|gbaf gfed|egfg ~e2ef|
.g2 bg gfed|Bdgd Bd.d2|gbaf gfed|egfg edBA:||


Tune 1462	Setting 14852

